X:1
T:Down By the Waters Rolling
M:2/4
L:1/8
K:G
 B| BG AF| G/2G/2 F/2E/2 Dd| d2 ec| d2| BB| BG AF| G/2G/2 F/2E/2 D2|\
 E G/2G/2 AB| G2 G||
